X: 2443
T: NEW BEGINNERS POLKA
R: polka
B: Kerr's v.2 p.51 #443
Z: 2016 John Chambers <jc:trillian.mit.edu>
M: 2/4
L: 1/8
K: D
A |\
Af f>f | ag B>B | AA f>e | ddd z/A/ |\
Af ff  | ag B>B | AA f>e | ddd :|
|: A |\
ef g>c | de f>d | cd e>d | cBA z/A/ |\
Af ff  | ag B>B | AA f>e | ddd :|

%%sep 1 1 500
%%sep 1 1 500

